X:4
T:Jigg, A
M:6/4
L:1/4
Q:3/4=85
S:D.Wright, Extraordinary Collection, London 1713
Z:Pete Stewart, 2004 <www.hornpipemusic.co.uk>
K:G
b | e>fgf>ga | g>fedBG | B3F2G | A>BcB>AG | FBFEe^d | e3"^F in MS"E2 :|
 |: E/F/ | GBdGBd | ceaa^c/^d/e | ^d3B2b | bg/a/b af/g/a | ge/f/g fd/e/f | e3E2 :|

